X:1
T:Title
%%score { ( 1 3 ) | 2 }
L:1/8
Q:1/4=87
M:6/8
K:Ab
V:1 treble nm="Grand Piano"
V:3 treble 
V:2 bass 
V:1
 [CE]>[CF][CG] [CA][DB][Ec] | [Fd][FA][=EB] [_Ec]3 | [FB][FA][DF] [CE][CA][CA] | %3
w: J.~M.~Harris * * * * *|||
 [EA][EB][Ec] [EB]3 | [CE]>[CF][CG] [CA][DB][Ec] |[M:15/16] [Fd][DF]/-[DF]/[FA][=Ec]3/2- [Ec]3 | %6
w: |||
[M:13/16] [FB][FA]FEA3/2B |[M:3/4] cA B [CA]3 | e>e ee cA | [Bd]>[Bd] [Bd][Bd] [Ac][GB] | %10
w: ||||
 c>c c[Ec] [EB][EA] | B6 | [Ec]>[Ec] [Ec][Ec] [EB][FA] | [Fd]>[Fd] [Fd][Fd] [Fc][FB] | %14
w: ||||
[M:7/8] [Ae][Ae]3/2[CA][EGB][EAce]3/2[DGBd] |[M:3/4] [CEAc]6 |] %16
w: ||
V:2
 [A,,A,]>[A,,A,][A,,A,] [A,,A,][A,,A,][A,,A,] | [D,A,][D,A,][D,A,] [A,,A,]3 | %2
 [D,A,][D,A,][D,A,] [A,,A,][A,,E,][A,,E,] | [B,,A,][B,,G,][A,,A,] [E,G,]3 | %4
 [A,,A,]>[A,,A,][A,,A,] [A,,A,][A,,A,][A,,A,] | %5
[M:15/16] [D,A,][D,A,]/-[D,A,]/[D,F,][C,G,]3/2- [C,G,]3 | %6
[M:13/16] [D,F,][D,A,][D,A,D][E,A,C][E,A,C]3/2[E,G,D] |[M:3/4] [E,A,E][E,A,C] [E,G,D] [A,,A,]3 | %8
 [A,CA]>[A,CA] [A,CA][A,CA] [A,EA][K:bass][A,C] | [E,E]>[E,E] [E,E][E,E] [E,E][E,E] | %10
 [A,EA]>[A,EA] [A,EA][K:bass][A,,A,] [B,,G,][C,A,] | [E,G,E]2 [F,A,] .[E,G,]3 | %12
 [A,,A,]>[A,,A,] [A,,A,][A,,A,] [B,,G,][C,A,] | [D,A,]>[D,A,] [D,A,][B,,B,] [C,=A,][D,B,] | %14
[M:7/8] [E,C][E,C]3/2E,E,E,3/2E, |[M:3/4] A,,6 |] %16
V:3
 x6 | x6 | x6 | x6 | x6 |[M:15/16] x15/2 |[M:13/16] x13/2 |[M:3/4] x6 | x6 | x6 | x6 | z2 =D .E3 | %12
 x6 | x6 |[M:7/8] x7 |[M:3/4] x6 |] %16

